!!!COM: Palestrina, Giovanni Perluigi da
!!!OPR: Missa Aeterna Christi munera
!!!OMD: Benedictus
!!!OTL: First Section
**kern	**kern	**kern
*Itenor	*Icalto	*Icant
!Tenor	!Altus	!Cantus
*clefGv2	*clefG2	*clefG2
*k[b-]	*k[b-]	*k[b-]
*F:ion	*F:ion	*F:ion
*M4/2	*M4/2	*M4/2
=1	=1	=1
0r	1c	0r
.	1e	.
=2	=2	=2
0r	1f	0r
.	1g	.
=3	=3	=3
1F	2.a	0r
.	8g	.
.	8f	.
1A	2e	.
.	2f	.
=4	=4	=4
1B-	2g	0r
.	1f	.
1c	.	.
.	2e	.
=5	=5	=5
2.d	2f	1r
.	2.a	.
8c	.	.
8B-	.	.
2A	.	1f
.	4g	.
2B-	2f	.
=6	=6	=6
2c	2e	1a
2d	2f	.
1G	2.g	1b-
.	4f	.
=7	=7	=7
2r	4e	1cc
.	4d	.
2A	2e	.
4B-	[1d	2.dd
4c	.	.
4d	.	.
4e	.	8cc
.	.	8b-
=8	=8	=8
2f	1d]	2a
2d	.	2b-
2e	1r	2.cc
[2f	.	.
.	.	4b-
=9	=9	=9
2f]	1c	2a
2e	.	2.g
1c	1e	.
.	.	4e
.	.	[2a
=10	=10	=10
1d	1f	4a]
.	.	4g
.	.	1f
1c	1g	.
.	.	2e
=11	=11	=11
1F	2.a	4f
.	.	4g
.	.	4a
.	8g	4b-
.	8f	.
1r	2e	2.cc
.	2f	.
.	.	4a
=12	=12	=12
0r	2.g	4b-
.	.	4cc
.	.	1dd
.	8f	.
.	8e	.
.	2d	.
.	2e	4cc
.	.	4b-
=13	=13	=13
1F	2.f	1a
.	8e	.
.	8d	.
1A	2c	1r
.	2e	.
=14	=14	=14
1B-	4d	1f
.	4e	.
.	4f	.
.	4d	.
2c	2e	1a
[2d	[2f	.
=15	=15	=15
2d]	2f]	1b-
4c	4e	.
4B-	4d	.
2A	2c	2cc
2B-	[2f	[2dd
=16	=16	=16
1G	2f]	2dd]
.	2e	4cc
.	.	4b-
2F	2f	2a
2G	2d	2b-
=17	=17	=17
4A	1.c	2.cc
4B-	.	.
4c	.	.
4d	.	8b-
.	.	8a
4e	.	4g
4f	.	4a
[2g	2B-	2b-
=18	=18	=18
4g]	1d	2a
4f	.	.
1f	.	4g
.	.	4f
.	1c	[1g
4e	.	.
4d	.	.
=19	=19	=19
1e	2r	1g]
.	2g	.
2e	2g	1r
2c	2g	.
=20	=20	=20
2c	2.a	0r
2c	.	.
.	4g	.
1d	4f	.
.	4e	.
.	2f	.
=21	=21	=21
2B-	2d	0r
2A	2f	.
2.G	2e	.
.	4d	.
4A	4c	.
=22	=22	=22
4B-	4d	1r
4A	4e	.
4A	1f	.
8G	.	.
8F	.	.
1G	.	2r
.	4e	2g
.	4d	.
=23	=23	=23
1c	2e	2g
.	2c	2g
1F	2c	1a
.	2c	.
=24	=24	=24
2r	2d	2f
2A	4c	2e
.	8d	.
.	8e	.
1d	[1f	4d
.	.	4e
.	.	4f
.	.	4g
=25	=25	=25
2d	2f]	4a
.	.	4b-
2c	2e	2cc
4B-	1f	2.dd
4A	.	.
4B-	.	.
4c	.	4cc
=26	=26	=26
4d	1r	2b-
4e	.	.
1f	.	2a
.	2r	1g
4e	2g	.
4d	.	.
=27	=27	=27
2e	2g	1c
2e	2g	.
1f	1a	2r
.	.	2cc
=28	=28	=28
2r	2.f	2cc
2f	.	2cc
.	4e	.
2f	4d	1dd
.	4c	.
2f	4B-	.
.	4A	.
=29	=29	=29
1g	2G	2.b-
.	1g	.
.	.	4a
2e-	.	4b-
.	.	4a
2d	[2f	4g
.	.	4f
=30	=30	=30
1c	4f]	1g
.	8e	.
.	8d	.
.	2e	.
1F	2.f	2.a
.	4f	4a
=31	=31	=31
0c	0e	0g
*-	*-	*-
!!!CDT: 1525/^1526/-1594/2/2
!!!OCY: Italia
!!!AGN: Mass (Paraphrase)
!!!AST: renaissance, vocal
!!!ASW: Hymn
!!!PWK: Masses, Book 5
!!!RNB: Cadence finals: C
!!!YOR: Le Opere Complete, v. 15, p. 1
!!!YOO: Rome, Italy: Fratelli Scalera
!!!END: 1992//
!!!EED: John Miller
!!!YEC: Copyright 2000, John Miller
!!!YEN: United States of America
!!!YEM: Rights to all derivative electronic formats reserved.
!!!YEM: Refer to licensing agreement for further details.
!!!YEM: This file must be accompanied by the licensing agreement.
!!!YEM: A copy of the licensing agreement may be found at http://www.music-cog.ohio-state.edu/HumdrumDatabases/Palestrina/license.txt
!!!EMD: converted to Humdrum by Bret Aarden
